findly-builder/apps/searchassist/src/assets/icons/faq/carrotup.svg

<svg width="8" height="5" viewBox="0 0 8 5" fill="none" xmlns="http://www.w3.org/2000/svg">
<path fill-rule="evenodd" clip-rule="evenodd" d="M4.27328 4.13706C4.13123 4.27871 3.90611 4.28705 3.75429 4.16205L3.72672 4.13706L0.363196 0.932938C0.212269 0.782425 0.212269 0.538396 0.363196 0.387884C0.505246 0.246225 0.730361 0.237892 0.882183 0.362885L0.909752 0.387884L4 3.31941L7.09025 0.387884C7.2323 0.246225 7.45741 0.237892 7.60924 0.362885L7.6368 0.387884C7.77885 0.529543 7.78721 0.75404 7.66187 0.905445L7.6368 0.932939L4.27328 4.13706Z" fill="#5F6368"/>
</svg>

<svg width="8" height="5" fill="none" xmlns="http://www.w3.org/2000/svg"><path fill-rule="evenodd" clip-rule="evenodd" d="M4.273 4.137a.387.387 0 0 1-.519.025l-.027-.025L.363.933a.385.385 0 0 1 0-.545.387.387 0 0 1 .52-.025L.91.388 4 3.319 7.09.388a.387.387 0 0 1 .52-.025l.027.025c.142.142.15.366.025.517l-.025.028-3.364 3.204Z" fill="#5F6368"/></svg>
